plexos/res/components/graphs/desktop/grid_graph/grid_graph_01.svg

<svg id="Layer_1" data-name="Layer 1" xmlns="http://www.w3.org/2000/svg" width="318" height="183" viewBox="0 0 318 183"><defs><style>.cls-1{fill:none;stroke:#0f7b9b;stroke-miterlimit:10;stroke-width:4.45px;}.cls-2{fill:#0f7b9b;}.cls-3{fill:#c7c7c7;}</style></defs><line class="cls-1" x1="121.4" y1="30.3" x2="199.8" y2="30.3"/><polygon class="cls-2" points="198.2 35.8 207.8 30.3 198.2 24.8 198.2 35.8"/><line class="cls-1" x1="97.5" y1="54.7" x2="97.5" y2="132.4"/><polygon class="cls-2" points="92 130.7 97.5 140.3 103.1 130.7 92 130.7"/><path class="cls-2" d="M92,41.4V52.6h11.2V41.4Zm6.3,6.5v2.6H96.7V47.9l-2.3-4.1H96l1.5,2.7L99,43.8h1.6Z"/><path class="cls-2" d="M108.4,25.2V36.4h11.2V25.2Zm7.1,9L114,32l-1.5,2.3h-1.8l2.4-3.5-2.3-3.3h1.8l1.3,2,1.3-2H117l-2.3,3.3,2.4,3.5h-1.6Z"/><path class="cls-3" d="M206.7,41.05H181.3a2.79,2.79,0,0,0-2.8,2.79V69.26a2.79,2.79,0,0,0,2.8,2.79h25.4a2.79,2.79,0,0,0,2.8-2.79V43.74A2.77,2.77,0,0,0,206.7,41.05Zm-3.8,17.44H185.1V54.31h17.8Z"/><path class="cls-3" d="M206.7,76H181.3a2.79,2.79,0,0,0-2.8,2.79v25.42a2.79,2.79,0,0,0,2.8,2.79h25.4a2.79,2.79,0,0,0,2.8-2.79V78.69A2.77,2.77,0,0,0,206.7,76Zm-3.8,17.44H185.1V89.26h17.8Z"/><path class="cls-3" d="M171.7,76H146.3a2.79,2.79,0,0,0-2.8,2.79v25.42a2.79,2.79,0,0,0,2.8,2.79h25.4a2.79,2.79,0,0,0,2.8-2.79V78.69A2.77,2.77,0,0,0,171.7,76Zm-3.8,17.44H150.1V89.26h17.8Z"/><path class="cls-3" d="M136.7,76H111.3a2.79,2.79,0,0,0-2.8,2.79v25.42a2.79,2.79,0,0,0,2.8,2.79h25.4a2.79,2.79,0,0,0,2.8-2.79V78.69A2.77,2.77,0,0,0,136.7,76Zm-3.8,17.44H115.1V89.26h17.8Z"/><path class="cls-3" d="M136.7,41H111.3a2.79,2.79,0,0,0-2.8,2.79V69.21A2.79,2.79,0,0,0,111.3,72h25.4a2.79,2.79,0,0,0,2.8-2.79V43.69A2.77,2.77,0,0,0,136.7,41Zm-3.8,17.44H115.1V54.26h17.8Z"/><path class="cls-3" d="M171.7,41H146.3a2.79,2.79,0,0,0-2.8,2.79V69.21A2.79,2.79,0,0,0,146.3,72h25.4a2.79,2.79,0,0,0,2.8-2.79V43.69A2.77,2.77,0,0,0,171.7,41Zm-3.8,17.44H150.1V54.26h17.8Z"/><path class="cls-3" d="M136.7,111H111.3a2.79,2.79,0,0,0-2.8,2.79v25.42a2.79,2.79,0,0,0,2.8,2.79h25.4a2.79,2.79,0,0,0,2.8-2.79V113.69A2.77,2.77,0,0,0,136.7,111Zm-3.8,17.44H115.1v-4.18h17.8Z"/><path class="cls-3" d="M171.7,111H146.3a2.79,2.79,0,0,0-2.8,2.79v25.42a2.79,2.79,0,0,0,2.8,2.79h25.4a2.79,2.79,0,0,0,2.8-2.79V113.69A2.77,2.77,0,0,0,171.7,111Zm-3.8,17.44H150.1v-4.18h17.8Z"/><path class="cls-3" d="M206.7,111H181.3a2.79,2.79,0,0,0-2.8,2.79v25.42a2.79,2.79,0,0,0,2.8,2.79h25.4a2.79,2.79,0,0,0,2.8-2.79V113.69A2.77,2.77,0,0,0,206.7,111Zm-3.8,17.44H185.1v-4.18h17.8Z"/></svg>

<?xml version="1.0" encoding="utf-8"?>
<!-- Generator: Adobe Illustrator 25.0.1, SVG Export Plug-In . SVG Version: 6.00 Build 0)  -->
<svg version="1.1" id="Layer_1" xmlns="http://www.w3.org/2000/svg" xmlns:xlink="http://www.w3.org/1999/xlink" x="0px" y="0px"
	 viewBox="0 0 318 183" style="enable-background:new 0 0 318 183;" xml:space="preserve">
<style type="text/css">
	.st0{fill:#888888;}
	.st1{fill:#00A2E8;}
	.st2{fill:none;stroke:#0F7B9B;stroke-width:4.4483;stroke-miterlimit:10;}
	.st3{fill:#0F7B9B;}
	.st4{fill:#888888;}
	.st5{fill:#00A2E8;}
</style>
<path class="st1" d="M171.7,76h-25.4c-1.5,0-2.8,1.2-2.8,2.8v25.4c0,1.5,1.2,2.8,2.8,2.8h25.4c1.5,0,2.8-1.2,2.8-2.8V78.8
	C174.5,77.2,173.3,76,171.7,76z M168.6,99.5c0,0.9-0.8,1.7-1.7,1.7h-15.7c-0.9,0-1.7-0.8-1.7-1.7V83.8c0-0.9,0.8-1.7,1.7-1.7h15.7
	c0.9,0,1.7,0.8,1.7,1.7V99.5z"/>
<g>
	<g>
		<path class="st1" d="M136.7,76h-25.4c-1.5,0-2.8,1.2-2.8,2.8v25.4c0,1.5,1.2,2.8,2.8,2.8h25.4c1.5,0,2.8-1.2,2.8-2.8V78.8
			C139.5,77.2,138.3,76,136.7,76z M133.6,99.5c0,0.9-0.8,1.7-1.7,1.7h-15.7c-0.9,0-1.7-0.8-1.7-1.7V83.8c0-0.9,0.8-1.7,1.7-1.7h15.7
			c0.9,0,1.7,0.8,1.7,1.7V99.5z"/>
	</g>
</g>
<g>
	<g>
		<path class="st1" d="M206.7,41.1h-25.4c-1.5,0-2.8,1.2-2.8,2.8v25.4c0,1.5,1.2,2.8,2.8,2.8h25.4c1.5,0,2.8-1.2,2.8-2.8V43.8
			C209.5,42.2,208.2,41.1,206.7,41.1z M203.6,64.6c0,0.9-0.8,1.7-1.7,1.7h-15.7c-0.9,0-1.7-0.8-1.7-1.7V48.8c0-0.9,0.8-1.7,1.7-1.7
			h15.7c0.9,0,1.7,0.8,1.7,1.7V64.6z"/>
	</g>
</g>
<g>
	<g>
		<path class="st1" d="M206.7,111h-25.4c-1.5,0-2.8,1.2-2.8,2.8v25.4c0,1.5,1.2,2.8,2.8,2.8h25.4c1.5,0,2.8-1.2,2.8-2.8v-25.4
			C209.5,112.2,208.2,111,206.7,111z M203.6,134.5c0,0.9-0.8,1.7-1.7,1.7h-15.7c-0.9,0-1.7-0.8-1.7-1.7v-15.7c0-0.9,0.8-1.7,1.7-1.7
			h15.7c0.9,0,1.7,0.8,1.7,1.7V134.5z"/>
	</g>
</g>
<g>
	<g>
		<path class="st1" d="M136.7,41h-25.4c-1.5,0-2.8,1.2-2.8,2.8v25.4c0,1.5,1.2,2.8,2.8,2.8h25.4c1.5,0,2.8-1.2,2.8-2.8V43.8
			C139.5,42.2,138.2,41,136.7,41z M133.6,64.5c0,0.9-0.8,1.7-1.7,1.7h-15.7c-0.9,0-1.7-0.8-1.7-1.7V48.8c0-0.9,0.8-1.7,1.7-1.7h15.7
			c0.9,0,1.7,0.8,1.7,1.7V64.5z"/>
	</g>
</g>
<g>
	<g>
		<path class="st1" d="M206.7,76h-25.4c-1.5,0-2.8,1.2-2.8,2.8v25.4c0,1.5,1.2,2.8,2.8,2.8h25.4c1.5,0,2.8-1.2,2.8-2.8V78.8
			C209.5,77.2,208.2,76,206.7,76z M203.6,99.5c0,0.9-0.8,1.7-1.7,1.7h-15.7c-0.9,0-1.7-0.8-1.7-1.7V83.8c0-0.9,0.8-1.7,1.7-1.7h15.7
			c0.9,0,1.7,0.8,1.7,1.7V99.5z"/>
	</g>
</g>
<g>
	<g>
		<path class="st1" d="M171.7,111h-25.4c-1.5,0-2.8,1.2-2.8,2.8v25.4c0,1.5,1.2,2.8,2.8,2.8h25.4c1.5,0,2.8-1.2,2.8-2.8v-25.4
			C174.5,112.2,173.3,111,171.7,111z M168.6,134.5c0,0.9-0.8,1.7-1.7,1.7h-15.7c-0.9,0-1.7-0.8-1.7-1.7v-15.7c0-0.9,0.8-1.7,1.7-1.7
			h15.7c0.9,0,1.7,0.8,1.7,1.7V134.5z"/>
	</g>
</g>
<g>
	<g>
		<path class="st1" d="M136.7,111h-25.4c-1.5,0-2.8,1.2-2.8,2.8v25.4c0,1.5,1.2,2.8,2.8,2.8h25.4c1.5,0,2.8-1.2,2.8-2.8v-25.4
			C139.5,112.2,138.3,111,136.7,111z M133.6,134.5c0,0.9-0.8,1.7-1.7,1.7h-15.7c-0.9,0-1.7-0.8-1.7-1.7v-15.7c0-0.9,0.8-1.7,1.7-1.7
			h15.7c0.9,0,1.7,0.8,1.7,1.7V134.5z"/>
	</g>
</g>
<g>
	<g>
		<path class="st1" d="M171.7,41h-25.4c-1.5,0-2.8,1.2-2.8,2.8v25.4c0,1.5,1.2,2.8,2.8,2.8h25.4c1.5,0,2.8-1.2,2.8-2.8V43.8
			C174.5,42.3,173.3,41,171.7,41z M168.6,64.5c0,0.9-0.8,1.7-1.7,1.7h-15.7c-0.9,0-1.7-0.8-1.7-1.7V48.8c0-0.9,0.8-1.7,1.7-1.7h15.7
			c0.9,0,1.7,0.8,1.7,1.7V64.5z"/>
	</g>
</g>
<g>
	<g>
		<line class="st2" x1="121.4" y1="30.3" x2="199.8" y2="30.3"/>
		<g>
			<polygon class="st3" points="198.2,35.8 207.8,30.3 198.2,24.8 			"/>
		</g>
	</g>
</g>
<g>
	<rect x="92" y="159.2" class="st4" width="133.9" height="4.4"/>
</g>
<g>
	<rect x="104.1" y="156.9" class="st4" width="4.4" height="9"/>
</g>
<g>
	<rect x="139.2" y="156.9" class="st4" width="4.4" height="9"/>
</g>
<g>
	<rect x="174.3" y="156.9" class="st4" width="4.4" height="9"/>
</g>
<g>
	<rect x="209.5" y="156.9" class="st4" width="4.4" height="9"/>
</g>
<g>
	<g>
		<polygon class="st4" points="92,155.9 82.4,161.4 92,166.9 		"/>
	</g>
</g>
<g>
	<g>
		<line class="st2" x1="97.5" y1="54.7" x2="97.5" y2="132.4"/>
		<g>
			<polygon class="st3" points="92,130.7 97.5,140.3 103.1,130.7 			"/>
		</g>
	</g>
</g>
<path class="st3" d="M92,41.4v11.2h11.2V41.4H92z M98.3,47.9v2.6h-1.6v-2.6l-2.3-4.1H96l1.5,2.7l1.5-2.7h1.6L98.3,47.9z"/>
<path class="st3" d="M108.4,25.2v11.2h11.2V25.2H108.4z M115.5,34.2L114,32l-1.5,2.3h-1.8l2.4-3.5l-2.3-3.3h1.8l1.3,2l1.3-2h1.8
	l-2.3,3.3l2.4,3.5L115.5,34.2L115.5,34.2z"/>
<circle class="st4" cx="225.9" cy="161.4" r="5.5"/>
<path class="st0" d="M206.7,41.1h-25.4c-1.5,0-2.8,1.2-2.8,2.8v25.4c0,1.5,1.2,2.8,2.8,2.8h25.4c1.5,0,2.8-1.2,2.8-2.8V43.7
	C209.5,42.2,208.2,41.1,206.7,41.1z M202.9,58.5h-17.8v-4.2h17.8V58.5z"/>
<path class="st0" d="M206.7,76h-25.4c-1.5,0-2.8,1.2-2.8,2.8v25.4c0,1.5,1.2,2.8,2.8,2.8h25.4c1.5,0,2.8-1.2,2.8-2.8V78.7
	C209.5,77.2,208.2,76,206.7,76z M202.9,93.4h-17.8v-4.2h17.8V93.4z"/>
<path class="st0" d="M171.7,76h-25.4c-1.5,0-2.8,1.2-2.8,2.8v25.4c0,1.5,1.2,2.8,2.8,2.8h25.4c1.5,0,2.8-1.2,2.8-2.8V78.7
	C174.5,77.2,173.2,76,171.7,76z M167.9,93.4h-17.8v-4.2h17.8V93.4z"/>
<path class="st0" d="M136.7,76h-25.4c-1.5,0-2.8,1.2-2.8,2.8v25.4c0,1.5,1.2,2.8,2.8,2.8h25.4c1.5,0,2.8-1.2,2.8-2.8V78.7
	C139.5,77.2,138.2,76,136.7,76z M132.9,93.4h-17.8v-4.2h17.8V93.4z"/>
<path class="st0" d="M136.7,41h-25.4c-1.5,0-2.8,1.2-2.8,2.8v25.4c0,1.5,1.2,2.8,2.8,2.8h25.4c1.5,0,2.8-1.2,2.8-2.8V43.7
	C139.5,42.2,138.2,41,136.7,41z M132.9,58.4h-17.8v-4.2h17.8V58.4z"/>
<path class="st0" d="M171.7,41h-25.4c-1.5,0-2.8,1.2-2.8,2.8v25.4c0,1.5,1.2,2.8,2.8,2.8h25.4c1.5,0,2.8-1.2,2.8-2.8V43.7
	C174.5,42.2,173.2,41,171.7,41z M167.9,58.4h-17.8v-4.2h17.8V58.4z"/>
<path class="st0" d="M136.7,111h-25.4c-1.5,0-2.8,1.2-2.8,2.8v25.4c0,1.5,1.2,2.8,2.8,2.8h25.4c1.5,0,2.8-1.2,2.8-2.8v-25.5
	C139.5,112.2,138.2,111,136.7,111z M132.9,128.4h-17.8v-4.2h17.8V128.4z"/>
<path class="st0" d="M171.7,111h-25.4c-1.5,0-2.8,1.2-2.8,2.8v25.4c0,1.5,1.2,2.8,2.8,2.8h25.4c1.5,0,2.8-1.2,2.8-2.8v-25.5
	C174.5,112.2,173.2,111,171.7,111z M167.9,128.4h-17.8v-4.2h17.8V128.4z"/>
<path class="st0" d="M206.7,111h-25.4c-1.5,0-2.8,1.2-2.8,2.8v25.4c0,1.5,1.2,2.8,2.8,2.8h25.4c1.5,0,2.8-1.2,2.8-2.8v-25.5
	C209.5,112.2,208.2,111,206.7,111z M202.9,128.4h-17.8v-4.2h17.8V128.4z"/>
</svg>
